X:287
T:Reel 287
M:4/4
K:Gmaj
L:1/8
g>G (3GGG B>G (3GFG |B>G (3BAG g2f>d|B>G (3GGG  (3BAG d>B|cABA B>dc2:|B>d (3ded B>G (3ded |G>B (3BcB g>d (3dcd |g>G (3GGG d>G (3BAG |c>A (3AGA e>A (3AAA |g>G (3GGG dGBd|G>F (3fed g2fd|e>c (3cBc =fcAf|G2=fd c2|:A2|c2c2 c2BA|c>A (3AAA e>A (3AAA |A>f (3fef g>B (3BAB |c>A (3AAA c2|dcA2 B>A (3AAA |f>ed>e f>g (3fed |cecc e2dc|AGA2 =f2dc|B>
